icons/mobile/20/svg/reader-summarize-fill-20.svg

<svg width="20" height="20" viewBox="0 0 20 20" fill="none" xmlns="http://www.w3.org/2000/svg">
<path d="M13.9561 11.1157C14.611 10.9777 15.295 10.9636 15.96 11.0766C16.221 11.1206 16.4471 11.2811 16.5781 11.5161C16.713 11.757 16.7309 12.0433 16.6279 12.2993L16.1494 13.4926C16.7122 13.4856 17.252 13.5097 17.8027 13.5727C18.1357 13.6107 18.4092 13.8212 18.5322 14.1352C18.656 14.4501 18.5978 14.8041 18.3789 15.061L15.292 18.6801C15.1131 18.89 14.8691 19.0013 14.6143 19.0014L14.6133 18.9995C14.4843 18.9995 14.3526 18.9705 14.2266 18.9125C13.8479 18.7374 13.646 18.3585 13.7119 17.9467L14.0479 15.8461C13.6129 15.8361 13.1779 15.7979 12.752 15.7309C12.491 15.6899 12.262 15.534 12.127 15.3041C11.988 15.0692 11.9627 14.7867 12.0566 14.5307L13.002 11.9506C13.16 11.5208 13.5161 11.2076 13.9561 11.1157Z" fill="black"/>
<path fill-rule="evenodd" clip-rule="evenodd" d="M5.41504 1.22504C7.80103 0.924042 10.2403 0.925946 12.6143 1.22895C13.975 1.40304 14.9998 2.57576 15 3.95746V9.50434C14.544 9.50834 14.0875 9.55389 13.6445 9.64789C12.6967 9.84701 11.9297 10.5152 11.5928 11.434L10.6484 14.0141C10.3985 14.6921 10.466 15.4399 10.834 16.0649C11.031 16.3988 11.3061 16.6637 11.624 16.8637C10.75 16.9447 9.872 16.9985 9 16.9985C7.795 16.9985 6.57874 16.922 5.38574 16.77C4.02489 16.5959 3.00003 15.4224 3 14.0405V3.95648C3.00023 2.57368 4.03819 1.40002 5.41504 1.22504ZM6.75 11.2504C6.33579 11.2504 6 11.5862 6 12.0004C6.00026 12.4144 6.33595 12.7504 6.75 12.7504H8.25C8.66405 12.7504 8.99974 12.4144 9 12.0004C9 11.5862 8.66421 11.2504 8.25 11.2504H6.75ZM6.75 8.25043C6.33579 8.25043 6 8.58622 6 9.00043C6.00026 9.41442 6.33595 9.75043 6.75 9.75043H10.25C10.6641 9.75043 10.9997 9.41442 11 9.00043C11 8.58622 10.6642 8.25043 10.25 8.25043H6.75ZM6.75 5.25043C6.33579 5.25043 6 5.58622 6 6.00043C6.00026 6.41442 6.33595 6.75043 6.75 6.75043H11.25C11.6641 6.75043 11.9997 6.41442 12 6.00043C12 5.58622 11.6642 5.25043 11.25 5.25043H6.75Z" fill="black"/>
</svg>

<!-- This Source Code Form is subject to the terms of the Mozilla Public
   - License, v. 2.0. If a copy of the MPL was not distributed with this
   - file, You can obtain one at http://mozilla.org/MPL/2.0/. -->
<svg xmlns="http://www.w3.org/2000/svg" width="20" height="20" fill="none" viewBox="0 0 20 20">
    <path fill="#000" d="M13.956 11.116a5.4 5.4 0 0 1 2.004-.04.87.87 0 0 1 .618.44c.135.241.153.527.05.783l-.479 1.194c.563-.007 1.103.017 1.654.08a.88.88 0 0 1 .73.562.91.91 0 0 1-.154.926l-3.087 3.62a.89.89 0 0 1-.678.32V19a.9.9 0 0 1-.387-.086.89.89 0 0 1-.515-.966l.336-2.1a10 10 0 0 1-1.296-.116.88.88 0 0 1-.625-.427.9.9 0 0 1-.07-.773l.945-2.58a1.3 1.3 0 0 1 .954-.835" />
    <path fill="#000" fill-rule="evenodd" d="M5.415 1.225c2.386-.301 4.825-.3 7.2.004A2.75 2.75 0 0 1 15 3.957v5.547c-.456.004-.912.05-1.355.144a2.79 2.79 0 0 0-2.052 1.786l-.945 2.58a2.4 2.4 0 0 0 .186 2.05c.197.335.472.6.79.8-.874.08-1.752.134-2.624.134-1.205 0-2.421-.076-3.614-.228A2.75 2.75 0 0 1 3 14.04V3.957a2.76 2.76 0 0 1 2.415-2.731M6.75 11.25a.75.75 0 0 0 0 1.5h1.5a.75.75 0 0 0 0-1.5zm0-3a.75.75 0 0 0 0 1.5h3.5a.75.75 0 0 0 0-1.5zm0-3a.75.75 0 0 0 0 1.5h4.5a.75.75 0 0 0 0-1.5z" clip-rule="evenodd" />
</svg>
